!!!COM: Bach, Johann Sebastian
!!!OTL: 165. O Lamm Gottes, unschuldig
!!!ONM: No. 165
!!!OCL: Erk
!!!SCA: BWV 401
!!!YOE: Riemenschneider, Albert
!!!OPR: 371 Harmonized Chorales and 69 Chorale Melodies with Figured Bass
!!!OPT: Bach Chorale Harmonizations
**harm	**root	**kern	**kern	**kern	**kern
!	!	!bass	!tenor	!alto	!sprno
*Iorgan	*Iorgan	*Iorgan	*Iorgan	*Iorgan	*Iorgan
*>[A,A,B]	*>[A,A,B]	*>[A,A,B]	*>[A,A,B]	*>[A,A,B]	*>[A,A,B]
*>norep[A,B]	*>norep[A,B]	*>norep[A,B]	*>norep[A,B]	*>norep[A,B]	*>norep[A,B]
*>A	*>A	*>A	*>A	*>A	*>A
*k[f#]	*k[f#]	*k[f#]	*k[f#]	*k[f#]	*k[f#]
*G:	*G:	*G:	*G:	*G:	*G:
*met(c)	*met(c)	*met(c)	*met(c)	*met(c)	*met(c)
*M4/4	*M4/4	*M4/4	*M4/4	*M4/4	*M4/4
*MM60	*MM60	*MM60	*MM60	*MM60	*MM60
I	4FF	8GG	8B	4d	4g
.	.	8AA	8c	.	.
=1	=1	=1	=1	=1	=1
I7b	4FF	4BB	[4d	16d	4g
.	.	.	.	16e	.
.	.	.	.	8f	.
IV	4BB-	[4C	8d]	8f	4g
.	.	.	16c	8e	.
.	.	.	16B	.	.
V7c	4CC	4C]	4A	8f#	4dd
.	.	.	.	8d	.
Ib	4FF	8BB	[4d	8g	4dd
.	.	8AA	.	8f#	.
=2	=2	=2	=2	=2	=2
vi7b	4DD	4GG	4d]	4b	2ee
V/V	4GG	4AA	4c#	8a	.
.	.	.	.	8g	.
V;	4CC;	4D;	4A;	4f#;	4dd;
iii	4AA	4BB	4B	[4f#	4dd
=3	=3	=3	=3	=3	=3
vi	4DD	4E	4B	8f#]	4g
.	.	.	.	[8e	.
Vb	4CC	4F#	4A	8e]	4a
.	.	.	.	8d	.
I	4FF	8G	4.G	8d	4b
.	.	8F#	.	16e	.
.	.	.	.	16f#	.
IVb	4BB-	8E	.	[4g	4cc
.	.	8C	8e	.	.
=4	=4	=4	=4	=4	=4
Ic	4FF	4D	4d	8g]	4b
.	.	.	.	16f#	.
.	.	.	.	16e	.
V	4CC	4DD	8.d	4f#	8a
.	.	.	.	.	8g
.	.	.	16c	.	.
I;	4FF;	4GG;	4B;	4d;	4g;
=:|!	=:|!	=:|!	=:|!	=:|!	=:|!
*>B	*>B	*>B	*>B	*>B	*>B
I	4FF	[4G	4d	4g	4b
=5	=5	=5	=5	=5	=5
I	4FF	8G]	4d	4g	4b
.	.	8F#	.	.	.
vi	4DD	8E	4e	4g	4b
.	.	8D	.	.	.
V7b/V	4GG	4C#	4e	4g	4a
Vb/vi	4AA	4D#	4B	4f#	4b
=6	=6	=6	=6	=6	=6
!!linebreak: 2
vi	8DD	8E	8B	8e	8g
Vb	8CC	8F#	8A	[8d	8f#
vi7b	8DD	8G	8B	8d]	4e
V/V	8GG	8A	16A	8c#	.
.	.	.	16G	.	.
V;	4CC;	4D;	4F#;	4A;	4d;
V7b/IV	4FF	4BB	4G	4f	4dd
=7	=7	=7	=7	=7	=7
IV	8BB-	4C	8G	8e	4ee
(vii7c)	8EE	.	8A	8f#	.
I	4FF	[4G	8B	8g	4dd
.	.	.	8c	16a	.
.	.	.	.	16b	.
Vb	4CC	8G]	[4d	4a	4dd
.	.	8F#	.	.	.
I	8FF	4G	8d]	4g	8b
IVc	8BB-	.	8e	.	8cc
=8	=8	=8	=8	=8	=8
V7/IV	8FF	8G	4f	4.b	4dd
viioD7/ii	8FF#	8G#	.	.	.
v/VI	4AA	8A	4e	.	4cc
.	.	8AA	.	[8a	.
VI;	4DD;	4E;	4e;	8a]	4b;
.	.	.	.	8g#;	.
iib	8GG	8C	8e	4a	4ee
V7b/V	8GG	8C#	8g	.	.
=9	=9	=9	=9	=9	=9
V	4CC	4D	[4f#	4a	8dd
.	.	.	.	.	8cc
vi	4DD	4E	8f#]	4g	4b
.	.	.	[8e	.	.
Vb	4CC	4F#	8e]	[4a	4a
.	.	.	8d	.	.
I	4FF	4G	4d	8a]	4b
.	.	.	.	16g	.
.	.	.	.	16f#	.
=10	=10	=10	=10	=10	=10
Ib	4FF	8BB	8d	4g	4dd
.	.	16C	8B	.	.
.	.	16D	.	.	.
vi	4DD	8E	8G	[4g	4b
.	.	8D	8B	.	.
ii7b	4GG	4C	4e	4g]	2a
V	4CC	4D	8d	4f#	.
.	.	.	8c	.	.
=11	=11	=11	=11	=11	=11
I;	2.FF;	2.GG;	2.B;	2.d;	2.g;
==	==	==	==	==	==
*-	*-	*-	*-	*-	*-
!!!CDT: 1685/3//-1750/7/28
!!!OCY: Deutschland
!!!AGN: chorale
!!!AST: Baroque
!!!AIN: vox
!!!YOY: 1941
!!!PPP: New York; London
!!!PPR: G. Schirmer
!!!ENC: David Huron
!!!EED: David Huron
!!!YEN: United States of America
!!!YER: 1992
!!!YEC: Copyright 1992 David Huron
!!!YEM: Rights to all derivative electronic formats reserved.
!!!YER: March 20, 1996
!!!AMT: simple quadruple
!!!EEV: 1.1
!!chor2scor: -l 2 -s 0.6 -o %b.pmx
